X: 128009
T: CAPTAIN WHITE
%R: jig
B: James Kerr "Merry Melodies" v.1 p.28 s.0 #9
Z: 2016 John Chambers <jc:trillian.mit.edu>
M: 6/8
L: 1/8
K: D
[|\
vDFA ud2uf | edc uB2ud | vA2vd uF2uB | AGF E2F |\
DFA d2f | edc B2d | A2d F2B | ABc d2 ||\
uf |\
ve^de uA2uf | e^de a2f | efe dcB | A2B c2f |
e^de A2f | e^de a2f | efe dcB | ABA GFE ||\
vD2vf fef | d2A A2A | A2f fef | g2e e2e |\
A2f fef | d2A A2A | Bcd edc | BAG FGE |]

%%sep 1 1 500
%%sep 1 1 500

